teeny/solid/quote.svg

<svg width="15" height="15" viewBox="0 0 15 15" fill="none" xmlns="http://www.w3.org/2000/svg">
<path d="M2.5 1C1.67157 1 1 1.67157 1 2.5V10C1 12.2091 2.79086 14 5 14V13C3.34315 13 2 11.6569 2 10V7H5.5C6.32843 7 7 6.32843 7 5.5V2.5C7 1.67157 6.32843 1 5.5 1H2.5Z" fill="black"/>
<path d="M9.5 1C8.67157 1 8 1.67157 8 2.5V10C8 12.2091 9.79086 14 12 14V13C10.3431 13 9 11.6569 9 10V7H12.5C13.3284 7 14 6.32843 14 5.5V2.5C14 1.67157 13.3284 1 12.5 1H9.5Z" fill="black"/>
</svg>

<svg viewBox="0 0 15 15" xmlns="http://www.w3.org/2000/svg"><g><path d="M2.5 1C1.67 1 1 1.67 1 2.5V10c0 2.2 1.79 4 4 4v-1c-1.66 0-3-1.35-3-3V7h3.5C6.32 7 7 6.32 7 5.5v-3C7 1.67 6.32 1 5.5 1h-3Z"/><path d="M9.5 1C8.67 1 8 1.67 8 2.5V10c0 2.2 1.79 4 4 4v-1c-1.66 0-3-1.35-3-3V7h3.5c.82 0 1.5-.68 1.5-1.5v-3c0-.83-.68-1.5-1.5-1.5h-3Z"/></g></svg>
